ligands/bidentate/acac-acetylacetonate.svg

<svg height="256" viewBox="0 0 256 256" width="256" xmlns="http://www.w3.org/2000/svg"><path d="m0 0h256v256h-256z" fill="#fff"/><ellipse cx="223.2" cy="178.6" fill="#ff7f7f" fill-rule="evenodd" rx="18.6" ry="18.6" stroke="#ff7f7f"/><g fill="none" stroke="#000" stroke-width="2"><path d="m75.7 201.8 40.4-23.3"/><path d="m116.1 178.5 40.3 23.4"/><path d="m116.1 178.5v-61.8"/><path d="m125.3 173.2.1-51.2"/><path d="m116.1 116.7 53.6-30.9"/><path d="m169.7 85.8 40.4 23.3"/><path d="m169.7 96.5 35.7 20.7"/><path d="m169.7 85.8v-41.3"/><path d="m182.8 201.9 27.2-15.7"/><path d="m223.2 137.4v28"/><path d="m116.1 119.8v-3.1l2.7-1.6" stroke-miterlimit="10"/></g><text font-family="sans-serif" font-size="37" x="13.9" y="228">H</text><text font-family="sans-serif" font-size="24" x="39.5" y="242.8">3</text><text font-family="sans-serif" font-size="37" x="51.3" y="228">C</text><text font-family="sans-serif" font-size="37" x="158.5" y="228">O</text><text x="212.1" y="197.2"/><text font-family="sans-serif" font-size="37" x="212.1" y="135.3">O</text><text font-family="sans-serif" font-size="37" x="158.6" y="42.5">C</text><text font-family="sans-serif" font-size="37" x="184.2" y="42.5">H</text><text font-family="sans-serif" font-size="24" x="209.8" y="57.3">3</text></svg>

<?xml version='1.0' encoding='iso-8859-1'?>
<svg version='1.1' baseProfile='full'
              xmlns='http://www.w3.org/2000/svg'
                      xmlns:rdkit='http://www.rdkit.org/xml'
                      xmlns:xlink='http://www.w3.org/1999/xlink'
                  xml:space='preserve'
width='256px' height='256px' viewBox='0 0 256 256'>
<!-- END OF HEADER -->
<rect style='opacity:1.0;fill:#FFFFFF;stroke:none' width='256.0' height='256.0' x='0.0' y='0.0'> </rect>
<ellipse cx='223.2' cy='178.6' rx='18.6' ry='18.6' class='atom-3'  style='fill:#FF7F7F;fill-rule:evenodd;stroke:#FF7F7F;stroke-width:1.0px;stroke-linecap:butt;stroke-linejoin:miter;stroke-opacity:1' />
<path class='bond-0 atom-0 atom-1' d='M 75.7,201.8 L 116.1,178.5' style='fill:none;fill-rule:evenodd;stroke:#000000;stroke-width:2.0px;stroke-linecap:butt;stroke-linejoin:miter;stroke-opacity:1' />
<path class='bond-1 atom-1 atom-2' d='M 116.1,178.5 L 156.4,201.9' style='fill:none;fill-rule:evenodd;stroke:#000000;stroke-width:2.0px;stroke-linecap:butt;stroke-linejoin:miter;stroke-opacity:1' />
<path class='bond-2 atom-1 atom-4' d='M 116.1,178.5 L 116.1,116.7' style='fill:none;fill-rule:evenodd;stroke:#000000;stroke-width:2.0px;stroke-linecap:butt;stroke-linejoin:miter;stroke-opacity:1' />
<path class='bond-2 atom-1 atom-4' d='M 125.3,173.2 L 125.4,122.0' style='fill:none;fill-rule:evenodd;stroke:#000000;stroke-width:2.0px;stroke-linecap:butt;stroke-linejoin:miter;stroke-opacity:1' />
<path class='bond-3 atom-4 atom-5' d='M 116.1,116.7 L 169.7,85.8' style='fill:none;fill-rule:evenodd;stroke:#000000;stroke-width:2.0px;stroke-linecap:butt;stroke-linejoin:miter;stroke-opacity:1' />
<path class='bond-4 atom-5 atom-6' d='M 169.7,85.8 L 210.1,109.1' style='fill:none;fill-rule:evenodd;stroke:#000000;stroke-width:2.0px;stroke-linecap:butt;stroke-linejoin:miter;stroke-opacity:1' />
<path class='bond-4 atom-5 atom-6' d='M 169.7,96.5 L 205.4,117.2' style='fill:none;fill-rule:evenodd;stroke:#000000;stroke-width:2.0px;stroke-linecap:butt;stroke-linejoin:miter;stroke-opacity:1' />
<path class='bond-5 atom-5 atom-7' d='M 169.7,85.8 L 169.7,44.5' style='fill:none;fill-rule:evenodd;stroke:#000000;stroke-width:2.0px;stroke-linecap:butt;stroke-linejoin:miter;stroke-opacity:1' />
<path class='bond-6 atom-2 atom-3' d='M 182.8,201.9 L 210.0,186.2' style='fill:none;fill-rule:evenodd;stroke:#000000;stroke-width:2.0px;stroke-linecap:butt;stroke-linejoin:miter;stroke-opacity:1' />
<path class='bond-7 atom-6 atom-3' d='M 223.2,137.4 L 223.2,165.4' style='fill:none;fill-rule:evenodd;stroke:#000000;stroke-width:2.0px;stroke-linecap:butt;stroke-linejoin:miter;stroke-opacity:1' />
<path d='M 116.1,119.8 L 116.1,116.7 L 118.8,115.1' style='fill:none;stroke:#000000;stroke-width:2.0px;stroke-linecap:butt;stroke-linejoin:miter;stroke-miterlimit:10;stroke-opacity:1;' />
<text x='13.9' y='228.0' class='atom-0' style='font-size:37px;font-style:normal;font-weight:normal;fill-opacity:1;stroke:none;font-family:sans-serif;text-anchor:start;fill:#000000' >H</text>
<text x='39.5' y='242.8' class='atom-0' style='font-size:24px;font-style:normal;font-weight:normal;fill-opacity:1;stroke:none;font-family:sans-serif;text-anchor:start;fill:#000000' >3</text>
<text x='51.3' y='228.0' class='atom-0' style='font-size:37px;font-style:normal;font-weight:normal;fill-opacity:1;stroke:none;font-family:sans-serif;text-anchor:start;fill:#000000' >C</text>
<text x='158.5' y='228.0' class='atom-2' style='font-size:37px;font-style:normal;font-weight:normal;fill-opacity:1;stroke:none;font-family:sans-serif;text-anchor:start;fill:#000000' >O</text>
<text x='212.1' y='197.2' class='atom-3' style='font-size:37px;font-style:normal;font-weight:normal;fill-opacity:1;stroke:none;font-family:sans-serif;text-anchor:start;fill:#000000' ></text>
<text x='212.1' y='135.3' class='atom-6' style='font-size:37px;font-style:normal;font-weight:normal;fill-opacity:1;stroke:none;font-family:sans-serif;text-anchor:start;fill:#000000' >O</text>
<text x='158.6' y='42.5' class='atom-7' style='font-size:37px;font-style:normal;font-weight:normal;fill-opacity:1;stroke:none;font-family:sans-serif;text-anchor:start;fill:#000000' >C</text>
<text x='184.2' y='42.5' class='atom-7' style='font-size:37px;font-style:normal;font-weight:normal;fill-opacity:1;stroke:none;font-family:sans-serif;text-anchor:start;fill:#000000' >H</text>
<text x='209.8' y='57.3' class='atom-7' style='font-size:24px;font-style:normal;font-weight:normal;fill-opacity:1;stroke:none;font-family:sans-serif;text-anchor:start;fill:#000000' >3</text>
</svg>
